src/rounded/icons/fi-rr-copy-alt.svg

<svg id="Layer_1" height="512" viewBox="0 0 24 24" width="512" xmlns="http://www.w3.org/2000/svg" data-name="Layer 1"><path d="m13 20a5.006 5.006 0 0 0 5-5v-8.757a3.972 3.972 0 0 0 -1.172-2.829l-2.242-2.242a3.972 3.972 0 0 0 -2.829-1.172h-4.757a5.006 5.006 0 0 0 -5 5v10a5.006 5.006 0 0 0 5 5zm-9-5v-10a3 3 0 0 1 3-3s4.919.014 5 .024v1.976a2 2 0 0 0 2 2h1.976c.01.081.024 9 .024 9a3 3 0 0 1 -3 3h-6a3 3 0 0 1 -3-3zm18-7v11a5.006 5.006 0 0 1 -5 5h-9a1 1 0 0 1 0-2h9a3 3 0 0 0 3-3v-11a1 1 0 0 1 2 0z"/></svg>

<svg id="Layer_1" data-name="Layer 1" xmlns="http://www.w3.org/2000/svg" viewBox="0 0 24 24"><path d="M13,20a5.006,5.006,0,0,0,5-5V6.243a3.972,3.972,0,0,0-1.172-2.829L14.586,1.172A3.972,3.972,0,0,0,11.757,0H7A5.006,5.006,0,0,0,2,5V15a5.006,5.006,0,0,0,5,5ZM4,15V5A3,3,0,0,1,7,2s4.919.014,5,.024V4a2,2,0,0,0,2,2h1.976c.01.081.024,9,.024,9a3,3,0,0,1-3,3H7A3,3,0,0,1,4,15ZM22,8V19a5.006,5.006,0,0,1-5,5H8a1,1,0,0,1,0-2h9a3,3,0,0,0,3-3V8a1,1,0,0,1,2,0Z"/></svg>
